src/assets/theory.svg

<svg xmlns="http://www.w3.org/2000/svg" viewBox="0 0 24.848 24.848" height="93.915" width="93.915"><defs><clipPath id="a" clipPathUnits="userSpaceOnUse"><path d="M0 841.89h595.276V0H0z"/></clipPath></defs><g clip-path="url(#a)" transform="matrix(.35278 0 0 -.35278 -92.447 212.953)"><path style="fill:#de193b;fill-opacity:1;fill-rule:nonzero;stroke:none" d="M0 0c0-19.451-15.768-35.218-35.218-35.218-19.45 0-35.218 15.767-35.218 35.218 0 19.45 15.768 35.218 35.218 35.218C-15.768 35.218 0 19.45 0 0" transform="translate(332.49 568.428)"/><path style="fill:#fff;fill-opacity:1;fill-rule:nonzero;stroke:none" d="M0 0c-4.338 2.542-8.801 2.818-13.187.249-4.725-2.769-6.796-7.069-6.354-12.499.336-4.11 3.537-8.674 6.794-9.753-2.458 2.273-3.966 4.886-4.393 8.057-.433 3.225.249 6.21 2.051 8.918C-12.375-.95-6.8 2.13 0 0m-6.563-34.449c-1.665 0-3.329-.007-4.992.003-1.24.007-1.694.459-1.716 1.727-.053 3.099-1.031 5.856-3.039 8.227-.877 1.036-1.783 2.049-2.686 3.063-4.444 4.99-4.986 10.637-2.477 16.589 2.779 6.59 9.456 10.445 16.565 9.723A16.265 16.265 0 0 0 9.589-8.59c.802-4.92-.279-9.29-3.758-12.977-.885-.938-1.718-1.925-2.556-2.906C1.255-26.84.306-29.61.213-32.699c-.04-1.348-.442-1.743-1.784-1.748-1.664-.008-3.328-.002-4.992-.002" transform="translate(303.834 589.876)"/><path style="fill:#fff;fill-opacity:1;fill-rule:nonzero;stroke:none" d="M0 0c-1.763 0-3.526-.008-5.289.004-.745.006-1.195.313-1.341.851-.177.653.124 1.242.78 1.439.286.086.6.1.901.1 3.255.007 6.509.005 9.763.003.237-.001.479.001.707-.049.644-.141 1.029-.633.997-1.228A1.177 1.177 0 0 0 5.39.017C4.646-.026 3.898.001 3.152 0H0" transform="translate(297.397 551.17)"/><path style="fill:#fff;fill-opacity:1;fill-rule:nonzero;stroke:none" d="M0 0c-1.762 0-3.524-.013-5.286.006-.865.009-1.33.464-1.312 1.202.014.571.317.967.88 1.08.296.058.606.057.91.058 3.185.004 6.37.005 9.555.003.271 0 .545.003.811-.038.65-.101 1.049-.569 1.029-1.175-.02-.6-.45-1.05-1.099-1.123C5.254-.014 5.015 0 4.777 0H0" transform="translate(297.33 547.48)"/><path style="fill:#fff;fill-opacity:1;fill-rule:nonzero;stroke:none" d="M0 0h7.749c.496-1.134.217-2.288-.695-3.059C5.505-4.366 2.442-4.398.869-3.124-.119-2.325-.309-1.3 0 0" transform="translate(293.321 546.07)"/></g></svg>

<?xml version="1.0" encoding="UTF-8" standalone="no"?>
<svg
   xmlns:dc="http://purl.org/dc/elements/1.1/"
   xmlns:cc="http://creativecommons.org/ns#"
   xmlns:rdf="http://www.w3.org/1999/02/22-rdf-syntax-ns#"
   xmlns:svg="http://www.w3.org/2000/svg"
   xmlns="http://www.w3.org/2000/svg"
   id="svg6165"
   version="1.1"
   viewBox="0 0 24.848255 24.848255"
   height="24.848255mm"
   width="24.848255mm">
  <defs
     id="defs6159">
    <clipPath
       id="clipPath972-1"
       clipPathUnits="userSpaceOnUse">
      <path
         id="path970-0"
         d="M 0,841.89 H 595.276 V 0 H 0 Z" />
    </clipPath>
  </defs>
  <metadata
     id="metadata6162">
    <rdf:RDF>
      <cc:Work
         rdf:about="">
        <dc:format>image/svg+xml</dc:format>
        <dc:type
           rdf:resource="http://purl.org/dc/dcmitype/StillImage" />
        <dc:title></dc:title>
      </cc:Work>
    </rdf:RDF>
  </metadata>
  <g
     transform="translate(-316.98828,-159.84373)"
     id="layer1">
    <g
       id="g966-4"
       transform="matrix(0.35277777,0,0,-0.35277777,224.5417,372.79658)">
      <g
         clip-path="url(#clipPath972-1)"
         id="g968-37">
        <g
           transform="translate(332.4893,568.4279)"
           id="g974-1">
          <path
             id="path976-3"
             style="fill:#de193b;fill-opacity:1;fill-rule:nonzero;stroke:none"
             d="M 0,0 C 0,-19.451 -15.768,-35.218 -35.218,-35.218 -54.668,-35.218 -70.436,-19.451 -70.436,0 -70.436,19.45 -54.668,35.218 -35.218,35.218 -15.768,35.218 0,19.45 0,0" />
        </g>
        <g
           transform="translate(303.834,589.8761)"
           id="g978-96">
          <path
             id="path980-4"
             style="fill:#ffffff;fill-opacity:1;fill-rule:nonzero;stroke:none"
             d="M 0,0 C -4.338,2.542 -8.801,2.818 -13.187,0.249 -17.912,-2.52 -19.983,-6.82 -19.541,-12.25 -19.205,-16.36 -16.004,-20.924 -12.747,-22.003 -15.205,-19.73 -16.713,-17.117 -17.14,-13.946 -17.573,-10.721 -16.891,-7.736 -15.089,-5.028 -12.375,-0.95 -6.8,2.13 0,0 M -6.563,-34.449 C -8.228,-34.449 -9.892,-34.456 -11.555,-34.446 -12.795,-34.439 -13.249,-33.987 -13.271,-32.719 -13.324,-29.62 -14.302,-26.863 -16.31,-24.492 -17.187,-23.456 -18.093,-22.443 -18.996,-21.429 -23.44,-16.439 -23.982,-10.792 -21.473,-4.84 -18.694,1.75 -12.017,5.605 -4.908,4.883 3.191,4.061 8.535,-2.123 9.589,-8.59 10.391,-13.51 9.31,-17.88 5.831,-21.567 4.946,-22.505 4.113,-23.492 3.275,-24.473 1.255,-26.84 0.306,-29.61 0.213,-32.699 0.173,-34.047 -0.229,-34.442 -1.571,-34.447 -3.235,-34.455 -4.899,-34.449 -6.563,-34.449" />
        </g>
        <g
           transform="translate(297.3965,551.1696)"
           id="g982-2">
          <path
             id="path984-02"
             style="fill:#ffffff;fill-opacity:1;fill-rule:nonzero;stroke:none"
             d="M 0,0 C -1.763,0 -3.526,-0.008 -5.289,0.004 -6.034,0.01 -6.484,0.317 -6.63,0.855 -6.807,1.508 -6.506,2.097 -5.85,2.294 -5.564,2.38 -5.25,2.394 -4.949,2.394 -1.694,2.401 1.56,2.399 4.814,2.397 5.051,2.396 5.293,2.398 5.521,2.348 6.165,2.207 6.55,1.715 6.518,1.12 6.486,0.544 6.027,0.053 5.39,0.017 4.646,-0.026 3.898,0.001 3.152,0 2.102,-0.001 1.051,0 0,0" />
        </g>
        <g
           transform="translate(297.3291,547.4801)"
           id="g986-9">
          <path
             id="path988-5"
             style="fill:#ffffff;fill-opacity:1;fill-rule:nonzero;stroke:none"
             d="M 0,0 C -1.762,0 -3.524,-0.013 -5.286,0.006 -6.151,0.015 -6.616,0.47 -6.598,1.208 -6.584,1.779 -6.281,2.175 -5.718,2.288 -5.422,2.346 -5.112,2.345 -4.808,2.346 -1.623,2.35 1.562,2.351 4.747,2.349 5.018,2.349 5.292,2.352 5.558,2.311 6.208,2.21 6.607,1.742 6.587,1.136 6.567,0.536 6.137,0.086 5.488,0.013 5.254,-0.014 5.015,0 4.777,0 3.185,-0.001 1.592,0 0,0" />
        </g>
        <g
           transform="translate(293.3213,546.0695)"
           id="g990-74">
          <path
             id="path992-6"
             style="fill:#ffffff;fill-opacity:1;fill-rule:nonzero;stroke:none"
             d="M 0,0 H 7.749 C 8.245,-1.134 7.966,-2.288 7.054,-3.059 5.505,-4.366 2.442,-4.398 0.869,-3.124 -0.119,-2.325 -0.309,-1.3 0,0" />
        </g>
      </g>
    </g>
  </g>
</svg>
